assets/pause.svg

<svg fill="none" height="24" viewBox="0 0 24 24" width="24" xmlns="http://www.w3.org/2000/svg"><path d="m10 8c.5523 0 1 .44772 1 1v6c0 .5523-.4477 1-1 1h-1c-.55228 0-1-.4477-1-1v-6c0-.55228.44772-1 1-1zm5 0c.5523 0 1 .44772 1 1v6c0 .5523-.4477 1-1 1h-1c-.5523 0-1-.4477-1-1v-6c0-.55228.4477-1 1-1z" fill="#fff"/></svg>

<svg width="24" height="24" viewBox="0 0 24 24" fill="none" xmlns="http://www.w3.org/2000/svg">
<path d="M10 8C10.5523 8 11 8.44772 11 9V15C11 15.5523 10.5523 16 10 16H9C8.44772 16 8 15.5523 8 15V9C8 8.44772 8.44772 8 9 8H10ZM15 8C15.5523 8 16 8.44772 16 9V15C16 15.5523 15.5523 16 15 16H14C13.4477 16 13 15.5523 13 15V9C13 8.44772 13.4477 8 14 8H15Z" fill="white"/>
</svg>
